icons/modern/bowl-with-spoon.svg

<svg width="32" height="32" viewBox="0 0 32 32" fill="none" xmlns="http://www.w3.org/2000/svg">
<path fill-rule="evenodd" clip-rule="evenodd" d="M10.1995 6H21.863C26.174 6 29.6562 9.38181 29.6562 13.5456C29.6562 13.5842 29.6559 13.6227 29.6554 13.6611H29.6562V18.8666C29.6562 25.0176 25.0625 30 18.6639 30H13.3986C6.9375 30 2.40625 25.0176 2.40625 18.8666V13.6611H2.40715C2.40655 13.6227 2.40625 13.5842 2.40625 13.5456C2.40625 9.38181 5.89903 6 10.1995 6Z" fill="url(#paint0_linear_18_32561)"/>
<path fill-rule="evenodd" clip-rule="evenodd" d="M10.1995 6H21.863C26.174 6 29.6562 9.38181 29.6562 13.5456C29.6562 13.5842 29.6559 13.6227 29.6554 13.6611H29.6562V18.8666C29.6562 25.0176 25.0625 30 18.6639 30H13.3986C6.9375 30 2.40625 25.0176 2.40625 18.8666V13.6611H2.40715C2.40655 13.6227 2.40625 13.5842 2.40625 13.5456C2.40625 9.38181 5.89903 6 10.1995 6Z" fill="url(#paint1_radial_18_32561)"/>
<path fill-rule="evenodd" clip-rule="evenodd" d="M10.1995 6H21.863C26.174 6 29.6562 9.38181 29.6562 13.5456C29.6562 13.5842 29.6559 13.6227 29.6554 13.6611H29.6562V18.8666C29.6562 25.0176 25.0625 30 18.6639 30H13.3986C6.9375 30 2.40625 25.0176 2.40625 18.8666V13.6611H2.40715C2.40655 13.6227 2.40625 13.5842 2.40625 13.5456C2.40625 9.38181 5.89903 6 10.1995 6Z" fill="url(#paint2_linear_18_32561)"/>
<path fill-rule="evenodd" clip-rule="evenodd" d="M10.1995 6H21.863C26.174 6 29.6562 9.38181 29.6562 13.5456C29.6562 13.5842 29.6559 13.6227 29.6554 13.6611H29.6562V18.8666C29.6562 25.0176 25.0625 30 18.6639 30H13.3986C6.9375 30 2.40625 25.0176 2.40625 18.8666V13.6611H2.40715C2.40655 13.6227 2.40625 13.5842 2.40625 13.5456C2.40625 9.38181 5.89903 6 10.1995 6Z" fill="url(#paint3_radial_18_32561)"/>
<g filter="url(#filter0_f_18_32561)">
<path d="M21.863 6.3125H10.1995C5.89903 6.3125 2.5625 9.70188 2.5625 13.875C2.5625 18.0481 5.89903 21.4375 10.1995 21.4375H21.863C26.1635 21.4375 29.4688 18.0481 29.4688 13.875C29.4688 9.70188 26.174 6.3125 21.863 6.3125Z" fill="url(#paint4_linear_18_32561)"/>
<path d="M21.863 6.3125H10.1995C5.89903 6.3125 2.5625 9.70188 2.5625 13.875C2.5625 18.0481 5.89903 21.4375 10.1995 21.4375H21.863C26.1635 21.4375 29.4688 18.0481 29.4688 13.875C29.4688 9.70188 26.174 6.3125 21.863 6.3125Z" fill="url(#paint5_radial_18_32561)"/>
</g>
<path d="M22.0219 7.65625C25.2122 7.65625 27.8125 10.6094 27.8125 13.8208C27.8125 17.2812 25.2122 19.9853 22.0219 19.9853H10.0406C6.85028 19.9853 4.25 17.3281 4.25 13.8208C4.25 10.8125 6.85028 7.65625 10.0406 7.65625H22.0219Z" fill="url(#paint6_linear_18_32561)"/>
<path d="M22.0219 7.65625C25.2122 7.65625 27.8125 10.6094 27.8125 13.8208C27.8125 17.2812 25.2122 19.9853 22.0219 19.9853H10.0406C6.85028 19.9853 4.25 17.3281 4.25 13.8208C4.25 10.8125 6.85028 7.65625 10.0406 7.65625H22.0219Z" fill="url(#paint7_radial_18_32561)"/>
<g filter="url(#filter1_f_18_32561)">
<path d="M18.5547 17.8594C18.3547 17.2894 18.1053 16.49 18.4453 16L23.275 6.32815L21.1303 6.32812L16.3281 14.4219C16.0581 14.9919 15.3332 15.3085 14.7196 15.4353C12.2891 15.9375 11.2812 17.1986 10.5625 19.25L18.8203 19.25C18.8203 18.6205 18.7661 18.4936 18.5547 17.8594Z" fill="url(#paint8_linear_18_32561)"/>
<path d="M18.5547 17.8594C18.3547 17.2894 18.1053 16.49 18.4453 16L23.275 6.32815L21.1303 6.32812L16.3281 14.4219C16.0581 14.9919 15.3332 15.3085 14.7196 15.4353C12.2891 15.9375 11.2812 17.1986 10.5625 19.25L18.8203 19.25C18.8203 18.6205 18.7661 18.4936 18.5547 17.8594Z" fill="url(#paint9_radial_18_32561)"/>
<path d="M18.5547 17.8594C18.3547 17.2894 18.1053 16.49 18.4453 16L23.275 6.32815L21.1303 6.32812L16.3281 14.4219C16.0581 14.9919 15.3332 15.3085 14.7196 15.4353C12.2891 15.9375 11.2812 17.1986 10.5625 19.25L18.8203 19.25C18.8203 18.6205 18.7661 18.4936 18.5547 17.8594Z" fill="url(#paint10_radial_18_32561)"/>
<path d="M18.5547 17.8594C18.3547 17.2894 18.1053 16.49 18.4453 16L23.275 6.32815L21.1303 6.32812L16.3281 14.4219C16.0581 14.9919 15.3332 15.3085 14.7196 15.4353C12.2891 15.9375 11.2812 17.1986 10.5625 19.25L18.8203 19.25C18.8203 18.6205 18.7661 18.4936 18.5547 17.8594Z" fill="url(#paint11_linear_18_32561)"/>
</g>
<path d="M19.125 17.8594C18.925 17.2894 18.6756 16.49 19.0156 16L24.7188 6.12498C25.5469 4.60936 26.9531 2.96878 25.5469 2.15627C24.0149 1.27108 23.25 3.5625 22.4219 4.90622L16.8984 14.4219C16.6284 14.9919 15.9035 15.3085 15.29 15.4353C12.8594 15.9375 11.2891 17.9375 10.5703 19.9889L19.3906 19.9889C19.3906 19.3594 19.3364 18.4936 19.125 17.8594Z" fill="url(#paint12_linear_18_32561)"/>
<path d="M19.125 17.8594C18.925 17.2894 18.6756 16.49 19.0156 16L24.7188 6.12498C25.5469 4.60936 26.9531 2.96878 25.5469 2.15627C24.0149 1.27108 23.25 3.5625 22.4219 4.90622L16.8984 14.4219C16.6284 14.9919 15.9035 15.3085 15.29 15.4353C12.8594 15.9375 11.2891 17.9375 10.5703 19.9889L19.3906 19.9889C19.3906 19.3594 19.3364 18.4936 19.125 17.8594Z" fill="url(#paint13_radial_18_32561)"/>
<path d="M19.125 17.8594C18.925 17.2894 18.6756 16.49 19.0156 16L24.7188 6.12498C25.5469 4.60936 26.9531 2.96878 25.5469 2.15627C24.0149 1.27108 23.25 3.5625 22.4219 4.90622L16.8984 14.4219C16.6284 14.9919 15.9035 15.3085 15.29 15.4353C12.8594 15.9375 11.2891 17.9375 10.5703 19.9889L19.3906 19.9889C19.3906 19.3594 19.3364 18.4936 19.125 17.8594Z" fill="url(#paint14_radial_18_32561)"/>
<path d="M19.125 17.8594C18.925 17.2894 18.6756 16.49 19.0156 16L24.7188 6.12498C25.5469 4.60936 26.9531 2.96878 25.5469 2.15627C24.0149 1.27108 23.25 3.5625 22.4219 4.90622L16.8984 14.4219C16.6284 14.9919 15.9035 15.3085 15.29 15.4353C12.8594 15.9375 11.2891 17.9375 10.5703 19.9889L19.3906 19.9889C19.3906 19.3594 19.3364 18.4936 19.125 17.8594Z" fill="url(#paint15_radial_18_32561)"/>
<g filter="url(#filter2_f_18_32561)">
<path d="M16.7188 17.125C14.3554 15.9203 12.6953 18.1719 11.6562 20H18.2656C18.3987 19.0403 17.7426 17.6469 16.7188 17.125Z" fill="url(#paint16_radial_18_32561)"/>
</g>
<g filter="url(#filter3_f_18_32561)">
<path d="M29.25 14.7812C29.25 15.6562 29.1927 17.6033 27.7813 19.25C26.2813 21 23 21.5625 21.5312 21.5625" stroke="url(#paint17_radial_18_32561)" stroke-width="0.5" stroke-linecap="round"/>
</g>
<g filter="url(#filter4_f_18_32561)">
<path d="M11.7656 20.25C12.0156 19.3594 12.75 17.7188 14.3906 16.8594" stroke="url(#paint18_radial_18_32561)" stroke-width="0.25" stroke-linecap="round"/>
</g>
<defs>
<filter id="filter0_f_18_32561" x="2.2625" y="6.0125" width="27.5063" height="15.725" filterUnits="userSpaceOnUse" color-interpolation-filters="sRGB">
<feFlood flood-opacity="0" result="BackgroundImageFix"/>
<feBlend mode="normal" in="SourceGraphic" in2="BackgroundImageFix" result="shape"/>
<feGaussianBlur stdDeviation="0.15" result="effect1_foregroundBlur_18_32561"/>
</filter>
<filter id="filter1_f_18_32561" x="9.5625" y="5.32812" width="14.7125" height="14.9219" filterUnits="userSpaceOnUse" color-interpolation-filters="sRGB">
<feFlood flood-opacity="0" result="BackgroundImageFix"/>
<feBlend mode="normal" in="SourceGraphic" in2="BackgroundImageFix" result="shape"/>
<feGaussianBlur stdDeviation="0.5" result="effect1_foregroundBlur_18_32561"/>
</filter>
<filter id="filter2_f_18_32561" x="11.4062" y="16.5358" width="7.12646" height="3.71423" filterUnits="userSpaceOnUse" color-interpolation-filters="sRGB">
<feFlood flood-opacity="0" result="BackgroundImageFix"/>
<feBlend mode="normal" in="SourceGraphic" in2="BackgroundImageFix" result="shape"/>
<feGaussianBlur stdDeviation="0.125" result="effect1_foregroundBlur_18_32561"/>
</filter>
<filter id="filter3_f_18_32561" x="21.0312" y="14.2812" width="8.71881" height="7.78125" filterUnits="userSpaceOnUse" color-interpolation-filters="sRGB">
<feFlood flood-opacity="0" result="BackgroundImageFix"/>
<feBlend mode="normal" in="SourceGraphic" in2="BackgroundImageFix" result="shape"/>
<feGaussianBlur stdDeviation="0.125" result="effect1_foregroundBlur_18_32561"/>
</filter>
<filter id="filter4_f_18_32561" x="11.3906" y="16.4844" width="3.37506" height="4.14069" filterUnits="userSpaceOnUse" color-interpolation-filters="sRGB">
<feFlood flood-opacity="0" result="BackgroundImageFix"/>
<feBlend mode="normal" in="SourceGraphic" in2="BackgroundImageFix" result="shape"/>
<feGaussianBlur stdDeviation="0.125" result="effect1_foregroundBlur_18_32561"/>
</filter>
<linearGradient id="paint0_linear_18_32561" x1="2.40625" y1="18" x2="29.6563" y2="18" gradientUnits="userSpaceOnUse">
<stop stop-color="#3B74C0"/>
<stop offset="0.192456" stop-color="#2A7BDB"/>
<stop offset="0.274249" stop-color="#3483E7"/>
<stop offset="0.498853" stop-color="#3689E8"/>
<stop offset="0.771789" stop-color="#3982EA"/>
<stop offset="0.845183" stop-color="#4695F4"/>
<stop offset="0.952656" stop-color="#53A6FF"/>
<stop offset="1" stop-color="#43A9FF"/>
</linearGradient>
<radialGradient id="paint1_radial_18_32561" cx="0" cy="0" r="1" gradientUnits="userSpaceOnUse" gradientTransform="translate(16.0313 8.38185) rotate(90) scale(29.9932 24.882)">
<stop offset="0.695764" stop-color="#4A45E9" stop-opacity="0"/>
<stop offset="0.891642" stop-color="#4D45E9"/>
</radialGradient>
<linearGradient id="paint2_linear_18_32561" x1="13.125" y1="5.4375" x2="13.125" y2="14.25" gradientUnits="userSpaceOnUse">
<stop stop-color="#29A8EA"/>
<stop offset="1" stop-color="#28A8EA" stop-opacity="0"/>
</linearGradient>
<radialGradient id="paint3_radial_18_32561" cx="0" cy="0" r="1" gradientUnits="userSpaceOnUse" gradientTransform="translate(16.0312 30.4375) rotate(90) scale(6.8125 16.8437)">
<stop stop-color="#3F43EA"/>
<stop offset="1" stop-color="#3B69F0" stop-opacity="0"/>
</radialGradient>
<linearGradient id="paint4_linear_18_32561" x1="18.2051" y1="6.3125" x2="18.2051" y2="21.4375" gradientUnits="userSpaceOnUse">
<stop stop-color="#26AAED"/>
<stop offset="0.570213" stop-color="#2B9FEE"/>
<stop offset="1" stop-color="#2F90DE"/>
</linearGradient>
<radialGradient id="paint5_radial_18_32561" cx="0" cy="0" r="1" gradientUnits="userSpaceOnUse" gradientTransform="translate(9.4375 13.4375) rotate(107.969) scale(7.29324 7.09962)">
<stop offset="0.737584" stop-color="#57BFFF"/>
<stop offset="0.833444" stop-color="#5DC3FF" stop-opacity="0"/>
</radialGradient>
<linearGradient id="paint6_linear_18_32561" x1="3.9375" y1="14.4375" x2="28.125" y2="13.8208" gradientUnits="userSpaceOnUse">
<stop stop-color="#2F35DF"/>
<stop offset="0.145662" stop-color="#5153DF"/>
<stop offset="0.272458" stop-color="#3C3DCB"/>
<stop offset="0.829774" stop-color="#2E30BC"/>
<stop offset="1" stop-color="#191C97"/>
</linearGradient>
<radialGradient id="paint7_radial_18_32561" cx="0" cy="0" r="1" gradientUnits="userSpaceOnUse" gradientTransform="translate(16.0313 23) rotate(90) scale(6.125 18.6106)">
<stop offset="0.173469" stop-color="#1F2090"/>
<stop offset="1" stop-color="#202096" stop-opacity="0"/>
</radialGradient>
<linearGradient id="paint8_linear_18_32561" x1="19.7422" y1="8.09375" x2="22.4297" y2="9.625" gradientUnits="userSpaceOnUse">
<stop offset="0.0854343" stop-color="#807E8A"/>
<stop offset="0.36848" stop-color="#9E98AB"/>
<stop offset="0.617893" stop-color="#B3ACC1"/>
<stop offset="0.941308" stop-color="#B2ADC2"/>
</linearGradient>
<radialGradient id="paint9_radial_18_32561" cx="0" cy="0" r="1" gradientUnits="userSpaceOnUse" gradientTransform="translate(25.1484 3) rotate(117.646) scale(0.74083 1.22988)">
<stop stop-color="#D6D6DD"/>
<stop offset="1" stop-color="#D7D5DF" stop-opacity="0"/>
</radialGradient>
<radialGradient id="paint10_radial_18_32561" cx="0" cy="0" r="1" gradientUnits="userSpaceOnUse" gradientTransform="translate(9.67969 19.9889) rotate(-27.8412) scale(8.34044 7.20434)">
<stop stop-color="#8A8A99"/>
<stop offset="0.353412" stop-color="#9996A5"/>
<stop offset="0.86204" stop-color="#AAA7B5"/>
<stop offset="1" stop-color="#A9A5B3" stop-opacity="0"/>
</radialGradient>
<linearGradient id="paint11_linear_18_32561" x1="20.8063" y1="6.1488" x2="16.6375" y2="19.9889" gradientUnits="userSpaceOnUse">
<stop offset="0.0624726" stop-color="#2290D0"/>
<stop offset="0.13464" stop-color="#2731A9"/>
<stop offset="1" stop-color="#1F1E9B"/>
</linearGradient>
<linearGradient id="paint12_linear_18_32561" x1="20.3125" y1="8.09375" x2="23" y2="9.625" gradientUnits="userSpaceOnUse">
<stop offset="0.0854343" stop-color="#807E8A"/>
<stop offset="0.36848" stop-color="#9E98AB"/>
<stop offset="0.617893" stop-color="#B3ACC1"/>
<stop offset="0.941308" stop-color="#B2ADC2"/>
</linearGradient>
<radialGradient id="paint13_radial_18_32561" cx="0" cy="0" r="1" gradientUnits="userSpaceOnUse" gradientTransform="translate(25.7187 3) rotate(117.646) scale(0.74083 1.22988)">
<stop stop-color="#D6D6DD"/>
<stop offset="1" stop-color="#D7D5DF" stop-opacity="0"/>
</radialGradient>
<radialGradient id="paint14_radial_18_32561" cx="0" cy="0" r="1" gradientUnits="userSpaceOnUse" gradientTransform="translate(10.25 19.9889) rotate(-27.8412) scale(8.34044 7.20434)">
<stop stop-color="#8A8A99"/>
<stop offset="0.353412" stop-color="#9996A5"/>
<stop offset="0.86204" stop-color="#AAA7B5"/>
<stop offset="1" stop-color="#A9A5B3" stop-opacity="0"/>
</radialGradient>
<radialGradient id="paint15_radial_18_32561" cx="0" cy="0" r="1" gradientUnits="userSpaceOnUse" gradientTransform="translate(19.4375 17.5313) rotate(90) scale(1.53125 1.83149)">
<stop stop-color="#BFBFCA"/>
<stop offset="1" stop-color="#C0BEC9" stop-opacity="0"/>
</radialGradient>
<radialGradient id="paint16_radial_18_32561" cx="0" cy="0" r="1" gradientUnits="userSpaceOnUse" gradientTransform="translate(13.1562 22.0625) rotate(-49.1518) scale(6.97569 3.88336)">
<stop stop-color="#9998A6"/>
<stop offset="0.740191" stop-color="#9796A4"/>
<stop offset="0.886751" stop-color="#646179"/>
</radialGradient>
<radialGradient id="paint17_radial_18_32561" cx="0" cy="0" r="1" gradientUnits="userSpaceOnUse" gradientTransform="translate(28.3125 19.625) rotate(-120.753) scale(5.52725 6.12299)">
<stop stop-color="#62B8FF"/>
<stop offset="1" stop-color="#5FB7FF" stop-opacity="0"/>
</radialGradient>
<radialGradient id="paint18_radial_18_32561" cx="0" cy="0" r="1" gradientUnits="userSpaceOnUse" gradientTransform="translate(12.2656 18.1094) rotate(74.8355) scale(1.73219 2.1186)">
<stop stop-color="#9E9EAC"/>
<stop offset="1" stop-color="#CFCEDC" stop-opacity="0"/>
</radialGradient>
</defs>
</svg>

<svg width="32" height="32" fill="none" xmlns="http://www.w3.org/2000/svg"><path fill-rule="evenodd" clip-rule="evenodd" d="M10.2 6h11.663c4.311 0 7.793 3.382 7.793 7.546V18.867c0 6.15-4.593 11.133-10.992 11.133h-5.265C6.938 30 2.406 25.018 2.406 18.867V13.66h.001v-.115C2.406 9.382 5.898 6 10.2 6Z" fill="url(#a)"/><path fill-rule="evenodd" clip-rule="evenodd" d="M10.2 6h11.663c4.311 0 7.793 3.382 7.793 7.546V18.867c0 6.15-4.593 11.133-10.992 11.133h-5.265C6.938 30 2.406 25.018 2.406 18.867V13.66h.001v-.115C2.406 9.382 5.898 6 10.2 6Z" fill="url(#b)"/><path fill-rule="evenodd" clip-rule="evenodd" d="M10.2 6h11.663c4.311 0 7.793 3.382 7.793 7.546V18.867c0 6.15-4.593 11.133-10.992 11.133h-5.265C6.938 30 2.406 25.018 2.406 18.867V13.66h.001v-.115C2.406 9.382 5.898 6 10.2 6Z" fill="url(#c)"/><path fill-rule="evenodd" clip-rule="evenodd" d="M10.2 6h11.663c4.311 0 7.793 3.382 7.793 7.546V18.867c0 6.15-4.593 11.133-10.992 11.133h-5.265C6.938 30 2.406 25.018 2.406 18.867V13.66h.001v-.115C2.406 9.382 5.898 6 10.2 6Z" fill="url(#d)"/><g filter="url(#e)"><path d="M21.863 6.313H10.2c-4.301 0-7.637 3.389-7.637 7.562s3.336 7.563 7.636 7.563h11.664c4.3 0 7.606-3.39 7.606-7.563s-3.295-7.563-7.606-7.563Z" fill="url(#f)"/><path d="M21.863 6.313H10.2c-4.301 0-7.637 3.389-7.637 7.562s3.336 7.563 7.636 7.563h11.664c4.3 0 7.606-3.39 7.606-7.563s-3.295-7.563-7.606-7.563Z" fill="url(#g)"/></g><path d="M22.022 7.656c3.19 0 5.79 2.953 5.79 6.165 0 3.46-2.6 6.164-5.79 6.164H10.04c-3.19 0-5.791-2.657-5.791-6.164 0-3.008 2.6-6.165 5.79-6.165h11.982Z" fill="url(#h)"/><path d="M22.022 7.656c3.19 0 5.79 2.953 5.79 6.165 0 3.46-2.6 6.164-5.79 6.164H10.04c-3.19 0-5.791-2.657-5.791-6.164 0-3.008 2.6-6.165 5.79-6.165h11.982Z" fill="url(#i)"/><g filter="url(#j)"><path d="M18.555 17.86c-.2-.57-.45-1.37-.11-1.86l4.83-9.672H21.13l-4.802 8.094c-.27.57-.995.886-1.608 1.013-2.43.502-3.439 1.764-4.158 3.815h8.258c0-.63-.054-.756-.265-1.39Z" fill="url(#k)"/><path d="M18.555 17.86c-.2-.57-.45-1.37-.11-1.86l4.83-9.672H21.13l-4.802 8.094c-.27.57-.995.886-1.608 1.013-2.43.502-3.439 1.764-4.158 3.815h8.258c0-.63-.054-.756-.265-1.39Z" fill="url(#l)"/><path d="M18.555 17.86c-.2-.57-.45-1.37-.11-1.86l4.83-9.672H21.13l-4.802 8.094c-.27.57-.995.886-1.608 1.013-2.43.502-3.439 1.764-4.158 3.815h8.258c0-.63-.054-.756-.265-1.39Z" fill="url(#m)"/><path d="M18.555 17.86c-.2-.57-.45-1.37-.11-1.86l4.83-9.672H21.13l-4.802 8.094c-.27.57-.995.886-1.608 1.013-2.43.502-3.439 1.764-4.158 3.815h8.258c0-.63-.054-.756-.265-1.39Z" fill="url(#n)"/></g><path d="M19.125 17.86c-.2-.57-.45-1.37-.11-1.86l5.704-9.875c.828-1.516 2.234-3.156.828-3.969-1.532-.885-2.297 1.406-3.125 2.75l-5.524 9.516c-.27.57-.995.886-1.608 1.013-2.43.502-4 2.502-4.72 4.554h8.82c0-.63-.054-1.495-.265-2.13Z" fill="url(#o)"/><path d="M19.125 17.86c-.2-.57-.45-1.37-.11-1.86l5.704-9.875c.828-1.516 2.234-3.156.828-3.969-1.532-.885-2.297 1.406-3.125 2.75l-5.524 9.516c-.27.57-.995.886-1.608 1.013-2.43.502-4 2.502-4.72 4.554h8.82c0-.63-.054-1.495-.265-2.13Z" fill="url(#p)"/><path d="M19.125 17.86c-.2-.57-.45-1.37-.11-1.86l5.704-9.875c.828-1.516 2.234-3.156.828-3.969-1.532-.885-2.297 1.406-3.125 2.75l-5.524 9.516c-.27.57-.995.886-1.608 1.013-2.43.502-4 2.502-4.72 4.554h8.82c0-.63-.054-1.495-.265-2.13Z" fill="url(#q)"/><path d="M19.125 17.86c-.2-.57-.45-1.37-.11-1.86l5.704-9.875c.828-1.516 2.234-3.156.828-3.969-1.532-.885-2.297 1.406-3.125 2.75l-5.524 9.516c-.27.57-.995.886-1.608 1.013-2.43.502-4 2.502-4.72 4.554h8.82c0-.63-.054-1.495-.265-2.13Z" fill="url(#r)"/><g filter="url(#s)"><path d="M16.719 17.125c-2.364-1.205-4.024 1.047-5.063 2.875h6.61c.133-.96-.523-2.353-1.547-2.875Z" fill="url(#t)"/></g><g filter="url(#u)"><path d="M29.25 14.781c0 .875-.057 2.822-1.469 4.469-1.5 1.75-4.781 2.313-6.25 2.313" stroke="url(#v)" stroke-width=".5" stroke-linecap="round"/></g><g filter="url(#w)"><path d="M11.766 20.25c.25-.89.984-2.531 2.625-3.39" stroke="url(#x)" stroke-width=".25" stroke-linecap="round"/></g><defs><radialGradient id="b" cx="0" cy="0" r="1" gradientUnits="userSpaceOnUse" gradientTransform="matrix(0 29.9932 -24.882 0 16.031 8.382)"><stop offset=".696" stop-color="#4A45E9" stop-opacity="0"/><stop offset=".892" stop-color="#4D45E9"/></radialGradient><radialGradient id="d" cx="0" cy="0" r="1" gradientUnits="userSpaceOnUse" gradientTransform="matrix(0 6.8125 -16.8437 0 16.031 30.438)"><stop stop-color="#3F43EA"/><stop offset="1" stop-color="#3B69F0" stop-opacity="0"/></radialGradient><radialGradient id="g" cx="0" cy="0" r="1" gradientUnits="userSpaceOnUse" gradientTransform="matrix(-2.24998 6.9375 -6.75333 -2.19025 9.438 13.438)"><stop offset=".738" stop-color="#57BFFF"/><stop offset=".833" stop-color="#5DC3FF" stop-opacity="0"/></radialGradient><radialGradient id="i" cx="0" cy="0" r="1" gradientUnits="userSpaceOnUse" gradientTransform="matrix(0 6.125 -18.6106 0 16.031 23)"><stop offset=".173" stop-color="#1F2090"/><stop offset="1" stop-color="#202096" stop-opacity="0"/></radialGradient><radialGradient id="l" cx="0" cy="0" r="1" gradientUnits="userSpaceOnUse" gradientTransform="matrix(-.34375 .65625 -1.08947 -.57067 25.148 3)"><stop stop-color="#D6D6DD"/><stop offset="1" stop-color="#D7D5DF" stop-opacity="0"/></radialGradient><radialGradient id="m" cx="0" cy="0" r="1" gradientUnits="userSpaceOnUse" gradientTransform="matrix(7.375 -3.89517 3.36459 6.3704 9.68 19.989)"><stop stop-color="#8A8A99"/><stop offset=".353" stop-color="#9996A5"/><stop offset=".862" stop-color="#AAA7B5"/><stop offset="1" stop-color="#A9A5B3" stop-opacity="0"/></radialGradient><radialGradient id="p" cx="0" cy="0" r="1" gradientUnits="userSpaceOnUse" gradientTransform="matrix(-.34375 .65625 -1.08947 -.57067 25.719 3)"><stop stop-color="#D6D6DD"/><stop offset="1" stop-color="#D7D5DF" stop-opacity="0"/></radialGradient><radialGradient id="q" cx="0" cy="0" r="1" gradientUnits="userSpaceOnUse" gradientTransform="matrix(7.375 -3.89517 3.36459 6.3704 10.25 19.989)"><stop stop-color="#8A8A99"/><stop offset=".353" stop-color="#9996A5"/><stop offset=".862" stop-color="#AAA7B5"/><stop offset="1" stop-color="#A9A5B3" stop-opacity="0"/></radialGradient><radialGradient id="r" cx="0" cy="0" r="1" gradientUnits="userSpaceOnUse" gradientTransform="matrix(0 1.53125 -1.83149 0 19.438 17.531)"><stop stop-color="#BFBFCA"/><stop offset="1" stop-color="#C0BEC9" stop-opacity="0"/></radialGradient><radialGradient id="t" cx="0" cy="0" r="1" gradientUnits="userSpaceOnUse" gradientTransform="rotate(-49.152 30.7 -3.353) scale(6.97569 3.88336)"><stop stop-color="#9998A6"/><stop offset=".74" stop-color="#9796A4"/><stop offset=".887" stop-color="#646179"/></radialGradient><radialGradient id="v" cx="0" cy="0" r="1" gradientUnits="userSpaceOnUse" gradientTransform="matrix(-2.8263 -4.75 5.26197 -3.13092 28.313 19.625)"><stop stop-color="#62B8FF"/><stop offset="1" stop-color="#5FB7FF" stop-opacity="0"/></radialGradient><radialGradient id="x" cx="0" cy="0" r="1" gradientUnits="userSpaceOnUse" gradientTransform="rotate(74.835 -5.703 17.07) scale(1.73219 2.1186)"><stop stop-color="#9E9EAC"/><stop offset="1" stop-color="#CFCEDC" stop-opacity="0"/></radialGradient><linearGradient id="a" x1="2.406" y1="18" x2="29.656" y2="18" gradientUnits="userSpaceOnUse"><stop stop-color="#3B74C0"/><stop offset=".192" stop-color="#2A7BDB"/><stop offset=".274" stop-color="#3483E7"/><stop offset=".499" stop-color="#3689E8"/><stop offset=".772" stop-color="#3982EA"/><stop offset=".845" stop-color="#4695F4"/><stop offset=".953" stop-color="#53A6FF"/><stop offset="1" stop-color="#43A9FF"/></linearGradient><linearGradient id="c" x1="13.125" y1="5.438" x2="13.125" y2="14.25" gradientUnits="userSpaceOnUse"><stop stop-color="#29A8EA"/><stop offset="1" stop-color="#28A8EA" stop-opacity="0"/></linearGradient><linearGradient id="f" x1="18.205" y1="6.313" x2="18.205" y2="21.438" gradientUnits="userSpaceOnUse"><stop stop-color="#26AAED"/><stop offset=".57" stop-color="#2B9FEE"/><stop offset="1" stop-color="#2F90DE"/></linearGradient><linearGradient id="h" x1="3.938" y1="14.438" x2="28.125" y2="13.821" gradientUnits="userSpaceOnUse"><stop stop-color="#2F35DF"/><stop offset=".146" stop-color="#5153DF"/><stop offset=".272" stop-color="#3C3DCB"/><stop offset=".83" stop-color="#2E30BC"/><stop offset="1" stop-color="#191C97"/></linearGradient><linearGradient id="k" x1="19.742" y1="8.094" x2="22.43" y2="9.625" gradientUnits="userSpaceOnUse"><stop offset=".085" stop-color="#807E8A"/><stop offset=".368" stop-color="#9E98AB"/><stop offset=".618" stop-color="#B3ACC1"/><stop offset=".941" stop-color="#B2ADC2"/></linearGradient><linearGradient id="n" x1="20.806" y1="6.149" x2="16.637" y2="19.989" gradientUnits="userSpaceOnUse"><stop offset=".062" stop-color="#2290D0"/><stop offset=".135" stop-color="#2731A9"/><stop offset="1" stop-color="#1F1E9B"/></linearGradient><linearGradient id="o" x1="20.313" y1="8.094" x2="23" y2="9.625" gradientUnits="userSpaceOnUse"><stop offset=".085" stop-color="#807E8A"/><stop offset=".368" stop-color="#9E98AB"/><stop offset=".618" stop-color="#B3ACC1"/><stop offset=".941" stop-color="#B2ADC2"/></linearGradient><filter id="e" x="2.263" y="6.013" width="27.506" height="15.725" filterUnits="userSpaceOnUse" color-interpolation-filters="sRGB"><feFlood flood-opacity="0" result="BackgroundImageFix"/><feBlend in="SourceGraphic" in2="BackgroundImageFix" result="shape"/><feGaussianBlur stdDeviation=".15" result="effect1_foregroundBlur_18_32561"/></filter><filter id="j" x="9.563" y="5.328" width="14.713" height="14.922" filterUnits="userSpaceOnUse" color-interpolation-filters="sRGB"><feFlood flood-opacity="0" result="BackgroundImageFix"/><feBlend in="SourceGraphic" in2="BackgroundImageFix" result="shape"/><feGaussianBlur stdDeviation=".5" result="effect1_foregroundBlur_18_32561"/></filter><filter id="s" x="11.406" y="16.536" width="7.126" height="3.714" filterUnits="userSpaceOnUse" color-interpolation-filters="sRGB"><feFlood flood-opacity="0" result="BackgroundImageFix"/><feBlend in="SourceGraphic" in2="BackgroundImageFix" result="shape"/><feGaussianBlur stdDeviation=".125" result="effect1_foregroundBlur_18_32561"/></filter><filter id="u" x="21.031" y="14.281" width="8.719" height="7.781" filterUnits="userSpaceOnUse" color-interpolation-filters="sRGB"><feFlood flood-opacity="0" result="BackgroundImageFix"/><feBlend in="SourceGraphic" in2="BackgroundImageFix" result="shape"/><feGaussianBlur stdDeviation=".125" result="effect1_foregroundBlur_18_32561"/></filter><filter id="w" x="11.391" y="16.484" width="3.375" height="4.141" filterUnits="userSpaceOnUse" color-interpolation-filters="sRGB"><feFlood flood-opacity="0" result="BackgroundImageFix"/><feBlend in="SourceGraphic" in2="BackgroundImageFix" result="shape"/><feGaussianBlur stdDeviation=".125" result="effect1_foregroundBlur_18_32561"/></filter></defs></svg>
